X: 20083
T: the GARDENER WI' HIS PAIDLE.
T: "the Fardener's March."
O: Scottish air.
Q: "Not too fast."
%R: march
B: W. Hamilton "Universal Tune-Book" Vol. 2 Glasgow 1846 p.8 #3
S: http://s3-eu-west-1.amazonaws.com/itma.dl.printmaterial/book_pdfs/hamiltonvol2web.pdf
Z: 2016 John Chambers <jc:trillian.mit.edu>
M: C|
L: 1/8
K: Bb
% - - - - - - - - - - - - - - - - - - - - - - - - -
F2 |\
B3c d2e2 | f2(gf) e3e | d2(ed) c2B2 | B2(DE) F3F |\
B2c2 d2e2 | f2(gf) e2(fe) | d2(cB) (cd)(ed) | c4 B2 :|
|: (ef) |\
g2e2 c2(de) | f2d2 B2(cd) | e2d2c2B2 | (AB)(cA) F3F |\
B3c d2e2 | f2(gf) e2(fe) | d2(cB) (cd)(ed) | c4 B2 :|
% - - - - - - - - - - - - - - - - - - - - - - - - -
